X:1
T:Noisy Mynah
C:Donna Vaughan 
R:Slide
M:12/8
L:1/8
K:D
|:"A"E2F A2B c2c cBA|cBA E2F "E"B3 BcB|"A"E2F A2B c3 e2A|1cec "E"BcB "A"A2B c2A:|2cec "E"BcB "A"A3 A3|]
|:"A"a2f e2c efe ecA|a2f e2c "D"f3 fef|"A"a2f e2c efe ecA|cBA "E"E2F "A"A3 A3:|
